Sources/FrostedUI/Resources/Icons.xcassets/palette12.imageset/palette-12.svg

<svg width="12" height="12" viewBox="0 0 12 12" fill="none" xmlns="http://www.w3.org/2000/svg" data-fui-icon="true">
  <path
    d="M6 0C9.31371 0 12 2.68629 12 6C12 6.287 11.9796 6.56969 11.9404 6.84668C11.7883 7.92227 10.8112 8.49983 9.91211 8.5H8.26855C7.96863 8.50006 7.7002 8.68605 7.59473 8.9668L6.95801 10.665C6.66861 11.4368 5.86837 12.0783 4.90137 11.8994C2.11254 11.3827 0 8.9388 0 6C0 2.68629 2.68629 0 6 0ZM6 1.5C3.51472 1.5 1.5 3.51472 1.5 6C1.5 8.20258 3.08313 10.0373 5.17383 10.4248C5.2349 10.4361 5.29905 10.4251 5.36719 10.3809C5.43995 10.3336 5.51095 10.2501 5.55273 10.1387L6.19043 8.44043C6.51539 7.57411 7.34329 7.00006 8.26855 7H9.91211C10.2587 6.99985 10.4327 6.79465 10.4551 6.63672C10.4844 6.42907 10.5 6.21655 10.5 6C10.5 3.51472 8.48528 1.5 6 1.5ZM4.5 7.25C4.91421 7.25 5.25 7.58579 5.25 8C5.25 8.41421 4.91421 8.75 4.5 8.75C4.08579 8.75 3.75 8.41421 3.75 8C3.75 7.58579 4.08579 7.25 4.5 7.25ZM3.5 4.25C3.91421 4.25 4.25 4.58579 4.25 5C4.25 5.41421 3.91421 5.75 3.5 5.75C3.08579 5.75 2.75 5.41421 2.75 5C2.75 4.58579 3.08579 4.25 3.5 4.25ZM8.5 4.25C8.91421 4.25 9.25 4.58579 9.25 5C9.25 5.41421 8.91421 5.75 8.5 5.75C8.08579 5.75 7.75 5.41421 7.75 5C7.75 4.58579 8.08579 4.25 8.5 4.25ZM6 2.5C6.41421 2.5 6.75 2.83579 6.75 3.25C6.75 3.66421 6.41421 4 6 4C5.58579 4 5.25 3.66421 5.25 3.25C5.25 2.83579 5.58579 2.5 6 2.5Z"
    fill="currentColor"
  />
</svg>

<svg xmlns="http://www.w3.org/2000/svg" width="12" height="12" fill="none" data-fui-icon="true" viewBox="0 0 12 12"><path fill="currentColor" d="M6 0a6 6 0 0 1 5.94 6.847C11.788 7.922 10.811 8.5 9.912 8.5H8.27a.72.72 0 0 0-.674.467l-.637 1.698c-.29.772-1.09 1.413-2.057 1.234A6 6 0 0 1 6 0m0 1.5a4.5 4.5 0 0 0-.826 8.925c.06.011.125 0 .193-.044a.5.5 0 0 0 .186-.242L6.19 8.44A2.22 2.22 0 0 1 8.27 7h1.643c.347 0 .52-.205.543-.363Q10.5 6.325 10.5 6A4.5 4.5 0 0 0 6 1.5M4.5 7.25a.75.75 0 1 1 0 1.5.75.75 0 0 1 0-1.5m-1-3a.75.75 0 1 1 0 1.5.75.75 0 0 1 0-1.5m5 0a.75.75 0 1 1 0 1.5.75.75 0 0 1 0-1.5M6 2.5A.75.75 0 1 1 6 4a.75.75 0 0 1 0-1.5"/></svg>
